X:137
T:Waltzes simple chords 2
M:3/4
L:1/8
K:Em
GA2< [B2G,2B,2D2]B | AG [AG,B,D]B GA | Bd2< [e2C,2E,2G,2]d | BA [BC,E,G,]<d A2 | AB2< [G2G,2B,2D2]B |
AG [EC,E,G,]G DE | GA2< [B2E,2G,2B,2]B | AG [A4D,4F,4A,4C4] | GA2< [B2G,2B,2D2]B |
AG [AG,B,D]B GA | Bd2< [e2C,2E,2G,2]d | BA [BC,E,G,]<d A2 | AB2< [G2G,2B,2D2]B |
AG [EC,E,G,]G DE | GA2< [B2E,2G,2B,2]B | AG [G4G,4B,4D4] | BA2< [G2G,2B,2D2]A |
Bd2< [e2E,2G,2B,2]d | ef2< [g2G,2B,2D2]f | ed [eC,E,G,]<g d2 | de2< [B2G,2B,2D2]B |
AG [AG,B,D]B GB | AG2< [E2E,2G,2B,2]D | B,D2< [E2A,2C2E2]D | EF2< [G2G,2B,2D2]F |
GA2< [B2E,2G,2B,2]A | Bd2< [e2E,2G,2B,2]d | BA [BG,B,D]<d A2 | AB2< [G2G,2B,2D2]B |
AG [EC,E,G,]G DE | GA2< [B2D,2F,2A,2C2]B | AG [G4G,4B,4D4] |


